X: 17
L:1/8
M:2/4
K:G
d>g g/f/g/a/|bb/c'/ b/a/f/g/|aa/b/ a/g/e/f/|g/a/g/e/ d/c/B/c/|
d>g g/f/g/a/|bb/c'/ b/a/f/g/|a/b/a/g/ f/d/e/f/|g>a g2||
E>[Ec] [E/c/][E/d/][E/c/]G/| E>[Ec] [E/c/][E/d/][E/c/]G/|
E>[Ec] [E/c/][E/d/][E/c/]G/| E>[Ec] [E/c/][E/d/][E/c/]G/|



